public/assets/img/svg/road_sign_mfpo.svg

<svg height="773.958" width="974.967" xmlns="http://www.w3.org/2000/svg"><circle cx="520.967" cy="99.958" fill="#ff6584" r="64"/><path d="m328.263 407.972c0 123.61-73.484 166.77-164.131 166.77s-164.132-43.16-164.132-166.77 164.132-280.862 164.132-280.862 164.131 157.252 164.131 280.862z" fill="#f2f2f2"/><path d="m158.153 555.833 1.68-103.45 69.957-127.983-69.693 111.754.755-46.515 48.215-92.595-48.015 80.285 1.36-83.66 51.628-73.717-51.415 60.562.849-153.404-5.336 203.078.438-8.377-52.491-80.347 51.65 96.429-4.891 93.434-.146-2.48-60.513-84.553 60.33 93.314-.612 11.685-.109.176.05.959-12.409 237.05h16.579l1.989-122.441 60.182-93.085z" fill="#3f3d56"/><path d="m814.647 343.122c0 151.011-89.774 203.739-200.515 203.739s-200.516-52.728-200.516-203.74 200.516-343.121 200.516-343.121 200.515 192.11 200.515 343.122z" fill="#f2f2f2"/><g fill="#3f3d56"><path d="m606.827 523.761 2.053-126.383 85.465-156.354-85.143 136.528.924-56.827 58.902-113.12-58.658 98.082 1.66-102.206 63.074-90.058-62.813 73.986 1.038-187.409-6.52 248.096.536-10.235-64.127-98.157 63.099 117.804-5.976 114.146-.177-3.029-73.928-103.296 73.704 113.999-.748 14.275-.133.215.061 1.172-15.16 289.599h20.254l2.431-149.584 73.522-113.72z"/><ellipse cx="399.967" cy="684.958" rx="308" ry="11"/><ellipse cx="832.967" cy="760.458" rx="142" ry="13.5"/></g><path d="m381.967 346.958h36v338h-36z" fill="#2f2e41"/><path d="m564.967 423.958h-221v-62h221l64 31z" fill="#3f3d56"/><path d="m564.967 418.958h-221v5h221l64-31-5.161-2.5z" opacity=".1"/><path d="m235.967 505.958h221v-62h-221l-64 31z" fill="#3f3d56"/><path d="m177.128 472.458-5.161 2.5 64 31h221v-5h-221z" opacity=".1"/><path d="m467.967 373.958h38v38h-38z" fill="#21a32f"/><circle cx="314.967" cy="474.958" fill="#21a32f" r="19"/><circle cx="399.967" cy="390.958" fill="#2f2e41" r="11"/><circle cx="399.967" cy="472.958" fill="#2f2e41" r="11"/><path d="m325.967 647.294c0 22.469-13.356 30.314-29.834 30.314q-.572 0-1.143-.013a48.69 48.69 0 0 1 -2.267-.104c-14.87-1.052-26.424-9.3-26.424-30.197 0-21.625 27.635-48.912 29.71-50.932l.004-.003.12-.117s29.834 28.583 29.834 51.052z" fill="#21a32f"/><path d="m295.046 674.17 10.912-15.246-10.94 16.92-.028 1.751a48.69 48.69 0 0 1 -2.267-.104l1.176-22.479-.009-.175.02-.032.111-2.123-10.966-16.963 11 15.37.026.451.889-16.984-9.389-17.528 9.503 14.547.926-35.213.003-.12v.116l-.154 27.768 9.346-11.008-9.385 13.4-.247 15.207 8.727-14.595-8.763 16.832-.138 8.454 12.67-20.312-12.717 23.262z" fill="#3f3d56"/><path d="m787.007 735.872s-14.159 11.923-21.611 11.178-21.611-.745-15.65 7.452 30.554 12.669 40.987 13.414 33.535 1.49 32.044-2.98-2.98-25.338-8.942-26.828-26.828-2.236-26.828-2.236zm81.265-11.707s-10.433 15.29-17.811 16.575-21.017 5.09-13.071 11.384 32.834 3.991 43.084 1.905 32.7-7.577 30.064-11.483-9.681-23.604-15.824-23.437-26.442 5.056-26.442 5.056z" fill="#575a89"/><path d="m778.713 505.496s-9.591 65.684-7.355 77.607 3.726 30.554 3.726 30.554-1.49 15.65 0 23.102 10.433 78.247 10.433 79.737-1.49 5.962 0 9.688 4.47.745 0 6.707-1.49 7.452-.746 7.452 29.809 2.981 31.3 0-.746-3.726 0-7.452 1.49-4.471 2.98-5.216 4.472.745 2.236-2.981-7.452-8.198-5.962-10.433-.745-18.63-.745-18.63-1.49-36.516-2.236-58.872 6.707-45.458 6.707-45.458a85.264 85.264 0 0 0 19.376 49.929c19.375 23.101 29.063 66.324 29.063 66.324s4.471 6.707 2.236 12.668-8.943 2.236-2.236 5.962 29.809-1.49 32.044-3.726-2.98-5.216-1.49-11.178 7.452-4.471 2.236-7.452-6.707-2.236-6.707-5.217-13.414-67.814-34.28-86.445l-1.49-67.814s18.63-47.694-.746-52.165-78.344 13.309-78.344 13.309z" fill="#2f2e41"/><path d="m792.224 328.985s12.668 31.3 9.687 35.77 36.516-14.904 36.516-14.904-12.669-31.299-12.669-35.025-33.534 14.16-33.534 14.16z" fill="#a0616a"/><circle cx="801.539" cy="309.237" fill="#a0616a" r="27.573"/><path d="m838.427 337.183s-19.376-2.236-29.064 9.687-11.178 14.905-11.178 14.905-23.101 37.26-18.63 55.89a53.906 53.906 0 0 1 2.98 5.217c1.491 2.981 1.491 44.713 0 51.42s-2.98 8.943-1.49 18.63-11.923 25.338 3.726 28.318 27.573.746 32.79-5.961.745-11.179 17.14-11.179 26.827-11.178 26.827-11.178-8.197-8.942-5.216-10.433 0-5.216-1.49-8.942-1.49-6.707.745-6.707.745-1.49-.746-5.217 26.083-67.814 9.688-86.444-24.592-29.064-24.592-29.064 2.981-11.178-1.49-8.942z" fill="#21a32f"/><path d="m795.95 407.978v32.79l-23.847 78.992s-15.65 40.987 0 40.987 14.81-39.12 14.81-39.12l33.629-59.249s13.413-46.948 11.923-50.674-36.515-3.726-36.515-3.726z" fill="#a0616a"/><path d="m808.618 359.54s-22.356 8.942-16.394 32.788 0 23.102 0 23.102 30.553-2.98 40.241 3.726l2.236-8.942s8.942-51.42-26.083-50.675z" fill="#21a32f"/><path d="m792.124 288.538a11.001 11.001 0 0 1 -10.334-1.609c-2.81-2.314-4-6.584-2.348-9.827 1.426-2.8 4.478-4.337 7.405-5.483a68.83 68.83 0 0 1 20.17-4.554c3.297-.235 6.76-.197 9.702 1.309 1.455.745 2.72 1.82 4.161 2.592 2.65 1.42 5.736 1.735 8.6 2.648a21.526 21.526 0 0 1 13.155 12.093 25.939 25.939 0 0 1 1.62 6.002 33.435 33.435 0 0 1 -1.738 16.738c-3.177 8.458-9.84 15.852-10.215 24.879-4.078-2.959-5.59-8.299-8.858-12.133a16.503 16.503 0 0 0 -9.42-5.463 5.246 5.246 0 0 1 -2.807-1.024 4.52 4.52 0 0 1 -1.025-2.392l-2.79-13.174c-.568-2.682-1.286-5.605-3.49-7.234a10.558 10.558 0 0 0 -4.547-1.602 71.34 71.34 0 0 0 -11.65-1.062" fill="#2f2e41"/></svg>

<svg data-name="Layer 1" xmlns="http://www.w3.org/2000/svg" width="974.967" height="773.958"><circle cx="520.967" cy="99.958" r="64" fill="#ff6584"/><path d="M328.263 407.972c0 123.61-73.484 166.77-164.131 166.77S0 531.582 0 407.972 164.132 127.11 164.132 127.11s164.131 157.252 164.131 280.862z" fill="#f2f2f2"/><path fill="#3f3d56" d="M158.153 555.833L159.833 452.383 229.79 324.4 160.097 436.154 160.852 389.639 209.067 297.044 161.052 377.329 161.052 377.329 162.412 293.669 214.04 219.952 162.625 280.514 163.474 127.11 158.138 330.188 158.576 321.811 106.085 241.464 157.735 337.893 152.844 431.327 152.698 428.847 92.185 344.294 152.515 437.608 151.903 449.293 151.794 449.469 151.844 450.428 139.435 687.478 156.014 687.478 158.003 565.037 218.185 471.952 158.153 555.833z"/><path d="M814.647 343.122c0 151.011-89.774 203.739-200.515 203.739s-200.516-52.728-200.516-203.74S614.132 0 614.132 0s200.515 192.11 200.515 343.122z" fill="#f2f2f2"/><path fill="#3f3d56" d="M606.827 523.761L608.88 397.378 694.345 241.024 609.202 377.552 610.126 320.725 669.028 207.605 610.37 305.687 610.37 305.687 612.03 203.481 675.104 113.423 612.291 187.409 613.329 0 606.809 248.096 607.345 237.861 543.218 139.704 606.317 257.508 600.341 371.654 600.164 368.625 526.236 265.329 599.94 379.328 599.192 393.603 599.059 393.818 599.12 394.99 583.96 684.589 604.214 684.589 606.645 535.005 680.167 421.285 606.827 523.761z"/><ellipse cx="399.967" cy="684.958" rx="308" ry="11" fill="#3f3d56"/><ellipse cx="832.967" cy="760.458" rx="142" ry="13.5" fill="#3f3d56"/><path fill="#2f2e41" d="M381.967 346.958H417.967V684.9580000000001H381.967z"/><path fill="#3f3d56" d="M564.967 423.958L343.967 423.958 343.967 361.958 564.967 361.958 628.967 392.958 564.967 423.958z"/><path opacity=".1" d="M564.967 418.958L343.967 418.958 343.967 423.958 564.967 423.958 628.967 392.958 623.806 390.458 564.967 418.958z"/><path fill="#3f3d56" d="M235.967 505.958L456.967 505.958 456.967 443.958 235.967 443.958 171.967 474.958 235.967 505.958z"/><path opacity=".1" d="M177.128 472.458L171.967 474.958 235.967 505.958 456.967 505.958 456.967 500.958 235.967 500.958 177.128 472.458z"/><path fill="#21a32f" d="M467.967 373.958H505.967V411.958H467.967z"/><circle cx="314.967" cy="474.958" r="19" fill="#21a32f"/><circle cx="399.967" cy="390.958" r="11" fill="#2f2e41"/><circle cx="399.967" cy="472.958" r="11" fill="#2f2e41"/><path d="M325.967 647.294c0 22.469-13.356 30.314-29.834 30.314q-.572 0-1.143-.013a48.69 48.69 0 0 1-2.267-.104c-14.87-1.052-26.424-9.3-26.424-30.197 0-21.625 27.635-48.912 29.71-50.932l.004-.003.12-.117s29.834 28.583 29.834 51.052z" fill="#21a32f"/><path d="M295.046 674.17l10.912-15.246-10.94 16.92-.028 1.751a48.69 48.69 0 0 1-2.267-.104l1.176-22.479-.009-.175.02-.032.111-2.123-10.966-16.963 11 15.37.026.451.889-16.984-9.389-17.528 9.503 14.547.926-35.213.003-.12v.116l-.154 27.768 9.346-11.008-9.385 13.4-.247 15.207 8.727-14.595-8.763 16.832-.138 8.454 12.67-20.312-12.717 23.262z" fill="#3f3d56"/><path d="M787.007 735.872s-14.159 11.923-21.611 11.178-21.611-.745-15.65 7.452 30.554 12.669 40.987 13.414 33.535 1.49 32.044-2.98-2.98-25.338-8.942-26.828-26.828-2.236-26.828-2.236zm81.265-11.707s-10.433 15.29-17.811 16.575-21.017 5.09-13.071 11.384 32.834 3.991 43.084 1.905 32.7-7.577 30.064-11.483-9.681-23.604-15.824-23.437-26.442 5.056-26.442 5.056z" fill="#575a89"/><path d="M778.713 505.496s-9.591 65.684-7.355 77.607 3.726 30.554 3.726 30.554-1.49 15.65 0 23.102 10.433 78.247 10.433 79.737-1.49 5.962 0 9.688 4.47.745 0 6.707-1.49 7.452-.746 7.452 29.809 2.981 31.3 0-.746-3.726 0-7.452 1.49-4.471 2.98-5.216 4.472.745 2.236-2.981-7.452-8.198-5.962-10.433-.745-18.63-.745-18.63-1.49-36.516-2.236-58.872 6.707-45.458 6.707-45.458a85.264 85.264 0 0 0 19.376 49.929c19.375 23.101 29.063 66.324 29.063 66.324s4.471 6.707 2.236 12.668-8.943 2.236-2.236 5.962 29.809-1.49 32.044-3.726-2.98-5.216-1.49-11.178 7.452-4.471 2.236-7.452-6.707-2.236-6.707-5.217-13.414-67.814-34.28-86.445l-1.49-67.814s18.63-47.694-.746-52.165-78.344 13.309-78.344 13.309z" fill="#2f2e41"/><path d="M792.224 328.985s12.668 31.3 9.687 35.77 36.516-14.904 36.516-14.904-12.669-31.299-12.669-35.025-33.534 14.16-33.534 14.16z" fill="#a0616a"/><circle cx="801.539" cy="309.237" r="27.573" fill="#a0616a"/><path d="M838.427 337.183s-19.376-2.236-29.064 9.687-11.178 14.905-11.178 14.905-23.101 37.26-18.63 55.89a53.906 53.906 0 0 1 2.98 5.217c1.491 2.981 1.491 44.713 0 51.42s-2.98 8.943-1.49 18.63-11.923 25.338 3.726 28.318 27.573.746 32.79-5.961.745-11.179 17.14-11.179 26.827-11.178 26.827-11.178-8.197-8.942-5.216-10.433 0-5.216-1.49-8.942-1.49-6.707.745-6.707.745-1.49-.746-5.217 26.083-67.814 9.688-86.444-24.592-29.064-24.592-29.064 2.981-11.178-1.49-8.942z" fill="#21a32f"/><path d="M795.95 407.978v32.79l-23.847 78.992s-15.65 40.987 0 40.987 14.81-39.12 14.81-39.12l33.629-59.249s13.413-46.948 11.923-50.674-36.515-3.726-36.515-3.726z" fill="#a0616a"/><path d="M808.618 359.54s-22.356 8.942-16.394 32.788 0 23.102 0 23.102 30.553-2.98 40.241 3.726l2.236-8.942s8.942-51.42-26.083-50.675z" fill="#21a32f"/><path d="M792.124 288.538a11.001 11.001 0 0 1-10.334-1.609c-2.81-2.314-4-6.584-2.348-9.827 1.426-2.8 4.478-4.337 7.405-5.483a68.83 68.83 0 0 1 20.17-4.554c3.297-.235 6.76-.197 9.702 1.309 1.455.745 2.72 1.82 4.161 2.592 2.65 1.42 5.736 1.735 8.6 2.648a21.526 21.526 0 0 1 13.155 12.093 25.939 25.939 0 0 1 1.62 6.002 33.435 33.435 0 0 1-1.738 16.738c-3.177 8.458-9.84 15.852-10.215 24.879-4.078-2.959-5.59-8.299-8.858-12.133a16.503 16.503 0 0 0-9.42-5.463 5.246 5.246 0 0 1-2.807-1.024 4.52 4.52 0 0 1-1.025-2.392l-2.79-13.174c-.568-2.682-1.286-5.605-3.49-7.234a10.558 10.558 0 0 0-4.547-1.602 71.34 71.34 0 0 0-11.65-1.062" fill="#2f2e41"/></svg>
